X: 35174
T: Rooftop, The
R: reel
M: 4/4
K: Gmajor
|:E3 F GA B/c/d|edBd A2 GA|~B3 B BAGB|~A3 A AGFG|
~E3 F GA B/c/d|edBd A2 GA|B3 B BAGB|1 AGFG EDB,D:|2 AGFG E2 e2||
|:edcB c2 c/d/c|cBAc B/d/B GA|~B3 B BAGB|~A3 A AGFG|
[1 edcB c2 c/d/c|cBAc B2 GA|BB,Bc BAGB|AGFG E3 e:|
[2 E3 F GA B/c/d|edBd A2 GA|~B3 B BAGB|AGFG EDB,D|

